X:1
T:English Suite VI Double
T:BWV 811
T:J. S. Bach
%%score { ( 1 2 3 6 ) | ( 4 5 7 8 ) }
L:1/8
M:3/2
K:F
V:1 treble nm="Harp"
V:2 treble 
V:3 treble 
V:6 treble 
V:4 bass 
V:5 bass 
V:7 bass 
V:8 bass 
V:1
 ^e4 =e4- egfa | gbag ^f4 z cdf | g4 e4- ed^cd | ^ced=B cA^GB AcBd/c/ | c/4=B/4c/_edc B4- BAB^c | %5
 dfed ^c4- cdcd | %6
 efef g/4f/4g/4f/4g/4f/4g/4f/4 g/4f/4g/4f/4g/4f/4g/4f/4 g/4f/4g/4f/4g/4f/4g/4f/4 f2 | %7
 e4 z ea^g a3 =g | ^e4 =e4- egfa | gbag ^f4 z cdf | g4 e4- ed^cd | ^ced=B cA^GB AcBd/c/ | %12
 c/4=B/4c/_edc B4- BAB^c | dfed ^c4- cdcd | %14
 efef g/4f/4g/4f/4g/4f/4g/4f/4 g/4f/4g/4f/4g/4f/4g/4f/4 g/4f/4g/4f/4g/4f/4g/4f/4 f2 | %15
 e4 z ea^g a4 | e4 e8- | e4 _e8 | d4- dBde fefd | egfd ec=Bd cedf/e/ | f4 z cfg a4- | %21
 a2 g2 z dga bfge | f4 z cef gd e2 | B/4A/4B/4A/4GAc f4- f4 | z4 z d^fg abc'a | bgeg ^cfea gfef | %26
 ge^ce Adcf edcd | e^cAc EAGB AG^FG | A4 z ^FGA z4 | z GA=B z4 z G_Bc | d4 d4- d3 ^c | %31
 d4 z Ad^c dfed | e4 e8- | e4 _e8 | d4- dBde fefd | egfd ec=Bd cedf/e/ | f4 z cfg a4- | %37
 a2 g2 z dga bfge | f4 z cef gd e2 | B/4A/4B/4A/4GAc f4- f4 | z4 z d^fg abc'a | bgeg ^cfea gfef | %42
 ge^ce Adcf edcd | e^cAc EAGB AG^FG | A4 z ^FGA z4 | z GA=B z4 z G_Bc | d4 d4- d3 ^c | %47
 d4 z Ad^c d4 |] %48
V:2
 A3 A B4- B4 | E4 z D^FG A4 | z ^cdA B4 =B4 | A8 E4 | D4 z[I:staff +1] G,3[I:staff -1] G4 | %5
 ^G4 z B=GE[I:staff +1] ^C[I:staff -1] z z2 | z4 z[I:staff +1] F,3[I:staff -1] FAd^G | %7
 z ^GA=B ^c4- c4 | A3 A B4- B4 | E4 z D^FG A4 | z ^cdA B4 =B4 | A8 E4 | %12
 D4 z[I:staff +1] G,3[I:staff -1] G4 | ^G4 z B=GE[I:staff +1] ^C[I:staff -1] z z2 | %14
 z4 z[I:staff +1] F,3[I:staff -1] FAd^G | z ^GA=B ^c4- c4 | z2 z F EAGB A4 | G4 z cAG F4- | %18
 FABF G4 A4 | G6 F2 E4 | z[I:staff +1] C[I:staff -1]FG A4 z efc | d4 B4 z2 G2 | z cdB A4 z2 z B | %23
 z4 z c3- c4 | z[I:staff +1] A,D[I:staff -1]^F A4 z4 | x12 | x12 | x12 | z4 D4 z4 | D4 z4 E4 | %30
 z ABE F4 F E3 | z GFE F8 | z2 z F EAGB A4 | G4 z cAG F4- | FABF G4 A4 | G6 F2 E4 | %36
 z[I:staff +1] C[I:staff -1]FG A4 z efc | d4 B4 z2 G2 | z cdB A4 z2 z B | z4 z c3- c4 | %40
 z[I:staff +1] A,D[I:staff -1]^F A4 z4 | x12 | x12 | x12 | z4 D4 z4 | D4 z4 E4 | z ABE F4 F E3 | %47
 z GFE F8 |] %48
V:3
 z ^c d2 z FGD E4 | A4 z D3- D4- | D4 z ^FG[I:staff +1]D E4 | x12 | x12 | E4[I:staff -1] z B3 z4 | %6
 x12 | x12 | z ^c d2 z FGD E4 | A4 z D3- D4- | D4 z ^FG[I:staff +1]D E4 | x12 | x12 | %13
 E4[I:staff -1] z B3 z4 | x12 | x12 | x12 | z4 z c3- c4 | x12 | x12 | x12 | x12 | x12 | %23
 z4 z2 A2- A4 | z4 z d3 z4 | x12 | x12 | x12 | x12 | x12 | z2 B2 z6 G2 | x12 | x12 | z4 z c3- c4 | %34
 x12 | x12 | x12 | x12 | x12 | z4 z2 A2- A4 | z4 z d3 z4 | x12 | x12 | x12 | x12 | x12 | %46
 z2 B2 z6 G2 | x12 |] %48
V:4
 D4 z2[I:staff -1] G2- G4 |[I:staff +1] ^C4 =C8 | B,4 G,4 ^G,4 | E6 D2 ^C4 | A,4 z G,=B,D- D4 | %5
 =B,4 G,4 z _B,G,E, | z4 z F,A,D- D2 =B,2 | z =B,^CD E4- E4 | D4 z2[I:staff -1] G2- G4 | %9
[I:staff +1] ^C4 =C8 | B,4 G,4 ^G,4 | E6 D2 ^C4 | A,4 z G,=B,D- D4 | =B,4 G,4 z _B,G,E, | %14
 z4 z F,A,D- D2 =B,2 | z =B,^CD E4- E4 | z D ^C2- C8- | C4 =C4 z _EDC | B,4 B,4 z CD=B, | C8 C4 | %20
 A,6 G,2 F,2 A,2 | z D[I:staff -1]GA[I:staff +1] z2 A,2 z2 C2- | C2 F4 ED C4 | F,8 C4 | %24
 ^F,4- F,G,A,B, CDE^F | G6 ^C2 z2 D2 | z2 G,2 z2 A,2 z2 B,2 | z2 E,2 A,2 E,2 ^C,2 A,,2 | %28
 z D,^F,A,- A,4 z D,G,=B,- | B,4 z E,G,^C z4 | F,2 E,2 z ^CD^G, A,4 | z B,A,G, A,8 | z D ^C2- C8- | %33
 C4 =C4 z _EDC | B,4 B,4 z CD=B, | C8 C4 | A,6 G,2 F,2 A,2 | %37
 z D[I:staff -1]GA[I:staff +1] z2 A,2 z2 C2- | C2 F4 ED C4 | F,8 C4 | ^F,4- F,G,A,B, CDE^F | %41
 G6 ^C2 z2 D2 | z2 G,2 z2 A,2 z2 B,2 | z2 E,2 A,2 E,2 ^C,2 A,,2 | z D,^F,A,- A,4 z D,G,=B,- | %45
 B,4 z E,G,^C z4 | F,2 E,2 z ^CD^G, A,4 | z B,A,G, A,8 |] %48
V:5
 D,4 D8 | x12 | x12 | A,8 G,4 | ^F,4 =F,8 | E,4 z2[I:staff -1] G2[I:staff +1] z4 | ^C,E,C,A,, D,8 | %7
 A,8- A,G,F,E, | D,4 D8 | x12 | x12 | A,8 G,4 | ^F,4 =F,8 | E,4 z2[I:staff -1] G2[I:staff +1] z4 | %14
 ^C,E,C,A,, D,8 | A,8- A,4 | A,4 G,4- G,B,A,=C | B,G,A,B, A,8 | B,2 A,2 G,4 F,4 | %19
 z2 G,2 C,2 G,2 B,4 | x12 | B,6 z2 G,2 B,2 | A,2 B,2 C4 C2 C,2 | z8 z B,A,G, | x12 | %25
 z2 G,2 A,4 B,4 | E,4 F,4 G,4 | ^C,12 | C,8 =B,,4- | B,,4 _B,,8 | A,,2 G,,2 A,, z z2 z2 A,,2 | %31
 D,8- D,D^C=B, | A,4 G,4- G,B,A,=C | B,G,A,B, A,8 | B,2 A,2 G,4 F,4 | z2 G,2 C,2 G,2 B,4 | x12 | %37
 B,6 z2 G,2 B,2 | A,2 B,2 C4 C2 C,2 | z8 z B,A,G, | x12 | z2 G,2 A,4 B,4 | E,4 F,4 G,4 | ^C,12 | %44
 C,8 =B,,4- | B,,4 _B,,8 | A,,2 G,,2 A,, z z2 z2 A,,2 | D,8- D,4 |] %48
V:6
 x12 | z4 z2 ^F2- ^F4 | x12 | x12 | x12 | x12 | x12 | x12 | x12 | z4 z2 ^F2- ^F4 | x12 | x12 | %12
 x12 | x12 | x12 | x12 | x12 | x12 | x12 | x12 | x12 | x12 | x12 | z4 z cAF- F4 | x12 | x12 | x12 | %27
 x12 | x12 | x12 | x12 | x12 | x12 | x12 | x12 | x12 | x12 | x12 | x12 | z4 z cAF- F4 | x12 | x12 | %42
 x12 | x12 | x12 | x12 | x12 | x12 |] %48
V:7
 x12 | x12 | x12 | x12 | z4 z2 =B,2- B,4 | x12 | z4 z2 A,2 z4 | x12 | x12 | x12 | x12 | x12 | %12
 z4 z2 =B,2- B,4 | x12 | z4 z2 A,2 z4 | x12 | x12 | x12 | x12 | x12 | x12 | x12 | x12 | x12 | %24
 z A,3 z8 | x12 | x12 | x12 | z D,3- D,4 z D,3- | D,4 z E,3- E,4 | x12 | x12 | x12 | x12 | x12 | %35
 x12 | x12 | x12 | x12 | x12 | z A,3 z8 | x12 | x12 | x12 | z D,3- D,4 z D,3- | D,4 z E,3- E,4 | %46
 x12 | x12 |] %48
V:8
 x12 | x12 | x12 | x12 | x12 | x12 | x12 | x12 | x12 | x12 | x12 | x12 | x12 | x12 | x12 | x12 | %16
 x12 | x12 | x12 | x12 | x12 | x12 | x12 | x12 | z2 D2 z8 | x12 | x12 | x12 | %28
 z2 =F,2- F,4 z2 G,2- | G,4 z2 G,2- G,4 | x12 | x12 | x12 | x12 | x12 | x12 | x12 | x12 | x12 | %39
 x12 | z2 D2 z8 | x12 | x12 | x12 | z2 =F,2- F,4 z2 G,2- | G,4 z2 G,2- G,4 | x12 | x12 |] %48

